X:1
T: Beamish Hall Revisited
N:
C:Tune is "Bobby Shaftoe"
S: Play  3  times
A:
O:
R:
M:4/4
K:G
I:speed 220
%W: A1
% voice 1 (1 lines, 30 notes)
K:G
M:4/4
L:1/16
G6 G2 G4 c4 |B4 d4 B4 G4 |D6 D2 D4 G4 |F4 A4 F4 D4 |G6 G2 G4 c4 |B4 d4 B4 G4 |A4 c4 A4 F4 |G8 G8 |
%W: A2
% voice 1 (1 lines, 30 notes)
G6 G2 G4 c4 |B4 d4 B4 G4 |D6 D2 D4 G4 |F4 A4 F4 D4 |G6 G2 G4 c4 |B4 d4 B4 G4 |A4 c4 A4 F4 |G8 G8 |
%W: B1
% voice 1 (1 lines, 27 notes)
B4 d4 B4 G4 |B4 d4 d8 |A4 c4 A4 F4 |A4 c4 c8 |B4 d4 B4 G4 |B4 d4 d8 |A4 c4 A4 F4 |G8 G8 |
%W: B2
% voice 1 (1 lines, 27 notes)
B4 d4 B4 G4 |B4 d4 d8 |A4 c4 A4 F4 |A4 c4 c8 |B4 d4 B4 G4 |B4 d4 d8 |A4 c4 A4 F4 |G8 G8 |
%W: C
% voice 1 (1 lines, 30 notes)
G6 G2 G4 c4 |B4 d4 B4 G4 |D6 D2 D4 G4 |F4 A4 F4 D4 |G6 G2 G4 c4 |B4 d4 B4 G4 |A4 c4 A4 F4 |G8 G8 |
%W: D
% voice 1 (1 lines, 27 notes)
B4 d4 B4 G4 |B4 d4 d8 |A4 c4 A4 F4 |A4 c4 c8 |B4 d4 B4 G4 |B4 d4 d8 |A4 c4 A4 F4 |G8 G8 ||
